X: 57
T: Red Prairie Dawn
C: Gary Harrison
N: as taught by Christine Cooper at Copenhagen Folk Marathon, New Year 2014/15
F: http://archive.folx.org/node?page=40 2016-6-2
M: 2/2
L: 1/8
K: A
Ac |\
e2c2 BABA | c2A2 F3G | A2AF EFAB | ccfc ecBA |
cec2 BABA | c2A2 F3G | A2AF EFAB |1 cABG A2 Ac :|2 cABG AABA |]
|:\
c4 F4 | A4 C3 B, | A,2EF A2 AB | ccfc ecBA |
c4 F4 | A4 C3 B, | A,2EF A2 AB |1 cABG AABA :|2 cABG A2 |]

%%sep 1 1 500

